src/images/svg-to-icon-sprite/vkontakte-logo.svg

<svg width="18" height="11" viewBox="0 0 18 11" fill="none" xmlns="http://www.w3.org/2000/svg">
<path d="M14.6935 5.07869C14.6935 5.07869 17.0241 1.79121 17.2555 0.710457C17.333 0.325088 17.1629 0.108721 16.7614 0.108721C16.7614 0.108721 15.4191 0.108721 14.7398 0.108721C14.277 0.108721 14.1069 0.308942 13.968 0.602813C13.968 0.602813 12.8743 2.93225 11.5449 4.39945C11.1176 4.87417 10.9012 5.01626 10.6655 5.01626C10.4749 5.01626 10.3877 4.85802 10.3877 4.42959V0.679241C10.3877 0.155009 10.3264 0 9.89365 0H6.65139C6.40488 0 6.24987 0.143168 6.24987 0.339082C6.24987 0.833173 7.00661 0.945123 7.00661 2.28423V5.04747C7.00661 5.60292 6.9754 5.81929 6.71382 5.81929C6.01951 5.81929 4.36824 3.42742 3.44141 0.710457C3.25626 0.155009 3.05497 0 2.53073 0H0.509161C0.216367 0 0 0.200219 0 0.49409C0 1.03447 0.632952 3.53506 3.1174 6.8839C4.78482 9.13691 6.97647 10.3565 8.95176 10.3565C10.1552 10.3565 10.4491 10.1563 10.4491 9.64607V7.91729C10.4491 7.48563 10.6192 7.29941 10.8657 7.29941C11.1434 7.29941 11.6343 7.38875 12.7796 8.51903C14.1381 9.81507 14.2307 10.3555 14.9713 10.3555H17.2404C17.4719 10.3555 17.6882 10.2478 17.6882 9.86136C17.6882 9.3522 17.0241 8.44152 16.0057 7.36076C15.5891 6.80532 14.9099 6.20358 14.6935 5.92586C14.3846 5.604 14.4772 5.41885 14.6935 5.07869Z" fill="black"/>
</svg>

<svg width="18" height="11" fill="none" xmlns="http://www.w3.org/2000/svg"><path d="M14.694 5.079S17.023 1.79 17.256.71c.077-.385-.093-.601-.495-.601H14.74c-.463 0-.633.2-.772.494 0 0-1.094 2.33-2.423 3.796-.427.475-.644.617-.88.617-.19 0-.277-.158-.277-.586V.68c0-.525-.062-.68-.494-.68H6.65c-.246 0-.401.143-.401.34 0 .493.757.605.757 1.944v2.763c0 .556-.032.772-.293.772C6.02 5.82 4.368 3.427 3.44.71 3.256.155 3.055 0 2.531 0H.509C.216 0 0 .2 0 .494c0 .54.633 3.041 3.117 6.39 1.668 2.253 3.86 3.473 5.835 3.473 1.203 0 1.497-.2 1.497-.71v-1.73c0-.431.17-.618.417-.618.277 0 .768.09 1.914 1.22 1.358 1.296 1.45 1.836 2.191 1.836h2.27c.23 0 .447-.107.447-.494 0-.509-.664-1.42-1.682-2.5-.417-.556-1.096-1.157-1.313-1.435-.308-.322-.216-.507 0-.847Z" fill="#000"/></svg>
